X:490
T: Jackson's Post-Chaise
T: C\'oiste Fostaithe Mhic Shiacais
S: B.Breathnach:"Ceol Rince na hEireann" IV/26
Z: B.Black
L: 1/8
M: 6/8
R: jig
K: Em
e|dBG GBG|dBG G2g|dBG GFG|EAA ABc|
dBG GBG|dBG G2g|edc BAB|GFG E2 :|
D|Eee efg|fef def|gfg efg|afd def|
gbg faf|edB gfg|edc BAB|GFG E2 :|
